frontend/assets/plus-icon.svg

<svg width="14" height="14" viewBox="0 0 14 14" fill="none" xmlns="http://www.w3.org/2000/svg">
<g clip-path="url(#clip0_55_8323)">
<path d="M0.40355 9.05749H4.94251V13.5964C4.94243 13.7034 4.98482 13.806 5.06037 13.8818C5.13591 13.9575 5.23844 14.0001 5.34541 14.0003H8.65426C8.70728 14.0003 8.75979 13.9899 8.80877 13.9696C8.85775 13.9493 8.90225 13.9195 8.93973 13.882C8.97721 13.8445 9.00693 13.8 9.02719 13.751C9.04745 13.702 9.05785 13.6495 9.05781 13.5964V9.05749H13.5961C13.7031 9.05757 13.8057 9.01518 13.8815 8.93963C13.9572 8.86408 13.9998 8.76156 14 8.65458V5.34574C14 5.29271 13.9896 5.24021 13.9693 5.19123C13.9489 5.14225 13.9192 5.09775 13.8817 5.06027C13.8442 5.02279 13.7997 4.99307 13.7507 4.97281C13.7017 4.95255 13.6491 4.94214 13.5961 4.94219H9.05716V0.403874C9.05725 0.296902 9.01486 0.194273 8.93931 0.118541C8.86376 0.042809 8.76123 0.000171946 8.65426 0H5.34541C5.23836 8.59903e-05 5.13571 0.0426749 5.06004 0.118407C4.98437 0.194138 4.94186 0.296816 4.94186 0.403874V4.94284H0.40355C0.296634 4.94284 0.194088 4.98526 0.118426 5.0608C0.0427643 5.13634 0.00017189 5.23882 0 5.34574V8.65458C0 8.76161 0.0425165 8.86426 0.118197 8.93994C0.193877 9.01562 0.296522 9.05814 0.40355 9.05814V9.05749Z" fill="#B6B6B6"/>
</g>
<defs>
<clipPath id="clip0_55_8323">
<rect width="14" height="14" fill="white"/>
</clipPath>
</defs>
</svg>

<?xml version="1.0" encoding="utf-8"?>
<!-- Generator: Adobe Illustrator 26.0.3, SVG Export Plug-In . SVG Version: 6.00 Build 0)  -->
<svg version="1.1" id="Layer_1" xmlns="http://www.w3.org/2000/svg" xmlns:xlink="http://www.w3.org/1999/xlink" x="0px" y="0px"
	 viewBox="0 0 14 14" style="enable-background:new 0 0 14 14;" xml:space="preserve">
<style type="text/css">
	.st0{clip-path:url(#SVGID_00000150803952985647160070000015729908176405080221_);}
</style>
<g>
	<defs>
		<rect id="SVGID_1_" y="0" width="14" height="14"/>
	</defs>
	<clipPath id="SVGID_00000039103890142379077050000002346027338095223689_">
		<use xlink:href="#SVGID_1_"  style="overflow:visible;"/>
	</clipPath>
	<g style="clip-path:url(#SVGID_00000039103890142379077050000002346027338095223689_);">
		<path d="M0.4,9.1h4.5v4.5c0,0.1,0,0.2,0.1,0.3C5.1,14,5.2,14,5.3,14h3.3c0.1,0,0.1,0,0.2,0s0.1-0.1,0.1-0.1c0,0,0.1-0.1,0.1-0.1
			c0,0,0-0.1,0-0.2V9.1h4.5c0.1,0,0.2,0,0.3-0.1C14,8.9,14,8.8,14,8.7V5.3c0-0.1,0-0.1,0-0.2c0,0-0.1-0.1-0.1-0.1
			c0,0-0.1-0.1-0.1-0.1c0,0-0.1,0-0.2,0H9.1V0.4c0-0.1,0-0.2-0.1-0.3S8.8,0,8.7,0H5.3C5.2,0,5.1,0,5.1,0.1C5,0.2,4.9,0.3,4.9,0.4
			v4.5H0.4c-0.1,0-0.2,0-0.3,0.1C0,5.1,0,5.2,0,5.3v3.3c0,0.1,0,0.2,0.1,0.3C0.2,9,0.3,9.1,0.4,9.1L0.4,9.1z"/>
	</g>
</g>
</svg>
